app/img/icons/youtube.svg

<svg width="19" height="13" viewBox="0 0 19 13" fill="none" xmlns="http://www.w3.org/2000/svg">
<path d="M15.6023 12.299H3.17035C1.50692 12.299 0.166748 10.9224 0.166748 9.22912V3.73638C0.166748 2.03625 1.51366 0.666504 3.17035 0.666504H15.6023C17.2657 0.666504 18.6059 2.04313 18.6059 3.73638V9.22912C18.6126 10.9292 17.2657 12.299 15.6023 12.299Z" fill="white"/>
<path d="M12.648 6.39679L7.41821 3.57471V9.21887L12.648 6.39679Z" fill="#202020"/>
</svg>

<svg width="19" height="13" fill="none" xmlns="http://www.w3.org/2000/svg"><path d="M15.602 12.299H3.17c-1.663 0-3.003-1.377-3.003-3.07V3.736c0-1.7 1.347-3.07 3.003-3.07h12.432c1.664 0 3.004 1.377 3.004 3.07V9.23c.007 1.7-1.34 3.07-3.004 3.07z" fill="#fff"/><path d="M12.648 6.397l-5.23-2.822v5.644l5.23-2.822z" fill="#202020"/></svg>
